icon/pk/one.svg

<svg viewBox="0 0 48 48" fill="none" xmlns="http://www.w3.org/2000/svg" height="1em" width="1em">
  <path d="M11 40L6.9395 31.2023C5.84497 28.8308 6.76016 26.0164 9.04019 24.7422L20.2971 18.4516C21.3325 17.873 22.6117 17.9588 23.5606 18.6704L24.587 19.4403C25.2089 19.9067 26.1018 19.5164 26.1817 18.7432L27.3708 7.24931C27.4534 6.45005 27.8533 5.71736 28.4808 5.2154L28.6963 5.04293C29.4385 4.44919 30.5084 4.50844 31.1805 5.18051C31.7052 5.70522 32 6.41688 32 7.15893V29.4194C32 30.2579 32.9695 30.7244 33.6243 30.2006L37 27.5C38.6529 26.1777 40.8749 27.041 42.255 27.945C42.6936 28.2323 42.7587 28.8265 42.447 29.2482L34.5 40C34.5 40 31 44 23 44C15 44 11.6667 41.3333 11 40Z" fill="#2F88FF" stroke="black" stroke-width="4"/>
</svg>

<svg width="48" height="48" fill="none" xmlns="http://www.w3.org/2000/svg"><path d="m11 40-4.06-8.798a5 5 0 0 1 2.1-6.46l11.257-6.29a3 3 0 0 1 3.264.218l1.026.77a1 1 0 0 0 1.595-.697L27.37 7.25a3 3 0 0 1 1.11-2.034l.215-.172a1.865 1.865 0 0 1 2.484.138c.525.524.82 1.236.82 1.978v22.26a1 1 0 0 0 1.624.782L37 27.5c1.653-1.322 3.875-.459 5.255.445.439.287.504.881.192 1.303L34.5 40S31 44 23 44s-11.333-2.667-12-4Z" fill="#2F88FF" stroke="#000" stroke-width="4"/></svg>
